img/home.svg

<svg width="12" height="14" viewBox="0 0 12 14" fill="none" xmlns="http://www.w3.org/2000/svg">
<path fill-rule="evenodd" clip-rule="evenodd" d="M5.64195 0.706191C5.8526 0.542354 6.14757 0.542354 6.35821 0.706191L11.6082 4.78952C11.7503 4.90004 11.8334 5.06997 11.8334 5.24998V11.6666C11.8334 12.1308 11.649 12.5759 11.3209 12.9041C10.9927 13.2323 10.5475 13.4166 10.0834 13.4166H1.91675C1.45262 13.4166 1.0075 13.2323 0.679311 12.9041C0.351123 12.5759 0.166748 12.1308 0.166748 11.6666V5.24998C0.166748 5.06997 0.249857 4.90004 0.391949 4.78952L5.64195 0.706191ZM1.33341 5.53528V11.6666C1.33341 11.8214 1.39487 11.9697 1.50427 12.0791C1.61367 12.1885 1.76204 12.25 1.91675 12.25H10.0834C10.2381 12.25 10.3865 12.1885 10.4959 12.0791C10.6053 11.9697 10.6667 11.8214 10.6667 11.6666V5.53528L6.00008 1.90565L1.33341 5.53528Z" fill="white"/>
<path fill-rule="evenodd" clip-rule="evenodd" d="M3.66675 6.99998C3.66675 6.67781 3.92792 6.41665 4.25008 6.41665H7.75008C8.07225 6.41665 8.33342 6.67781 8.33342 6.99998V12.8333C8.33342 13.1555 8.07225 13.4166 7.75008 13.4166C7.42792 13.4166 7.16675 13.1555 7.16675 12.8333V7.58331H4.83342V12.8333C4.83342 13.1555 4.57225 13.4166 4.25008 13.4166C3.92792 13.4166 3.66675 13.1555 3.66675 12.8333V6.99998Z" fill="white"/>
</svg>

<svg width="12" height="14" fill="none" xmlns="http://www.w3.org/2000/svg"><path fill-rule="evenodd" clip-rule="evenodd" d="M5.642.706a.583.583 0 0 1 .716 0l5.25 4.084c.142.11.225.28.225.46v6.417a1.75 1.75 0 0 1-1.75 1.75H1.917a1.75 1.75 0 0 1-1.75-1.75V5.25c0-.18.083-.35.225-.46L5.642.706zm-4.309 4.83v6.13a.583.583 0 0 0 .584.584h8.166a.583.583 0 0 0 .584-.583V5.535L6 1.905l-4.667 3.63z" fill="#fff"/><path fill-rule="evenodd" clip-rule="evenodd" d="M3.667 7c0-.322.26-.583.583-.583h3.5c.322 0 .583.26.583.583v5.833a.583.583 0 1 1-1.166 0v-5.25H4.833v5.25a.583.583 0 1 1-1.166 0V7z" fill="#fff"/></svg>
